X: 41245
T: Trumpet, The
R: hornpipe
M: 4/4
K: Gmajor
|:(3DEF|(3GGG G2 (3GGG G2|B>GB>d g>dB>G|(3DDD D2 (3DDD D2|F*DF>A d>B (3cBA|
(3GGG G2 (3GGG G2|B>GB*d g2 a>g|f>ag>f e>gf>e|(3ddd d>^c d2:|
|:B>=c|(3ddd d2 (3ddd d2|e*fg>f e>dc*B|c>de>d c>BA*G|F>GA>G F*DE>F|
(3GGG G2 (3=FFF F2|(3EEE E2 (3^DDD D2|(3DED fe (3ded (3cBA|G2 B2 G2:|

